X: 129
T: Oak Leaves
M:6/8
L:1/8
Q:160
S:Playford
O:Manuscript
A:English
K:F
ccd ccA| BGB A2 F|ccd e>fg| fdf e2c|cfc d>BG|dgd e>dc| c>fc f>ga|agf f3 :|

